X:1
T:A Dieu celle (4v)
T:A Dieu celle (4v)
T:Pierre de Manchicourt
C:Pierre de Manchicourt
%%score [ 1 2 3 4 ]
L:1/8
Q:1/4=84
M:2/2
K:C
V:1 treble nm="Superius" snm="S"
V:2 treble nm="Altus" snm="A"
V:3 treble-8 nm="Tenor 1" snm="T 1"
V:4 treble-8 nm="Tenor 2" snm="T 2"
V:1
 A4 c4- | c2 c2 c2 c2 | dc de f2 d2- | d2 cB c4- | c4 z2 e2 | e2 e2 A2 d2 | c2 B3 A A2- | %7
w: A Dieu|_ cel- le qui|te'ay _ _ _ _ _|_ ser- * vi|_ à|mon pou- voir, tout|mon _ _ _|
"^#" A2 G2 A4 | z2 A2 c4- | c2 c2 c2 c2 | dcde f2 d2- |"^#" d2 cB c4- | c4 z2 e2 | e2 e2 A2 d2 | %14
w: _ vi- vant,|à qui|_ je m'es- tois|as- * * * * *|* ser- * vi|_ plus|que nulz au- tre|
 c2 B4 A2- | A2 G2 A4 | z2 c2 c2 B2 | c3 d e2 d2- | d2 c4 B2 | c4 z4 | z2 c2 A2 B2 | c3 B A2 G2 | %22
w: par _ a-|* * vant,|à vous com'|hum- * * ble|_ ser- *|vant,|du tout m'es-|toit a- ban don-|
 F4 E4 |: z2 G2 A2 A2 | G2 c2 c2 B2 | cB cd e2 d2 | c4 B2 z2 | A2 c2 G2 B2 | AB cA B2 A2- | %29
w: * né,|si j'ay mal|faict en vous ser-|vant, _ _ _ _ _|_ _|pour Dieu, qu'il me|soit _ _ _ _ par-|
 A2 G2 c2 B2- | B2 A4 G2 |[M:2/4] A4 :|[M:2/2] A8 |] %33
w: * don- * *||né,|né.|
V:2
 E4 A4- | A2 A2 GFGA | B2 B2 A2 B2 | A2 z A A2 A2 | A,B,CD E2 A2- | A2 G2 F2 D2 | F4 E2 D2 | %7
w: A Dieu|_ cel- le _ _ _|_ qui t'ay ser-|vi à mon pou-|voir _ _ _ _ tout|_ mon _ _|_ _ _|
 E4 C4 | z2 E2 A4- | A2 A2 GF GA | B2 B2 A2 B2 | A2 z A A2 A2 | A,B,CD E2 A2- | A2 G2 F2 D2 | %14
w: vi- vant,|à qui|_ je m'es- * * *|* tois as- ser-|vi plus que nulz|aul- * * * tre par|_ _ _ _|
 F4 E2 D2 | E4 C2 F2 | E2 F2 GA BG | A2 A2 G2 z G | E2 F2 G3 F | ED E2 C2 G2- | G2 A4 GF | %21
w: |a- vant, à|vous comm' hum- * * *|ble ser- vant, du|tout m'es- toit _|_ _ _ _ _||
 E2 A,3 B, C2- | C2 B,2 C4 |: z2 E2 F2 F2 | E2 G2 A2 G2 | C6 D2 | E2 DC DCDE | F2 E2 z2 D2 | %28
w: * a- * ban-|* don- né,|si j'ay mal|faict en vous ser-|vant, _|_ _ _ _ _ _ _|* * pour|
 F2 C2 D2 A,B, | CDEF G4 | F2 D2 E4 |[M:2/4] C4 :|[M:2/2] C8 |] %33
w: Dieu qu'il me soit _|par- * * * don-||né,|né.|
V:3
 c4 e4- | e2 f2 edef | g2 g2 f2 g2 | e4 z2 e2 | e2 e2 AB cA | B2 c4 B2 | c2 d2 c2 BA | B4 A4 | %8
w: A Dieu|_ cel- le _ _ _|_ qui t'ay ser-|vi à|mon pou- voir _ _ _|_ tout mon|_ _ _ _ _|vi- vant,|
 z2 c2 e4- | e2 f2 edef | g2 g2 f2 g2 | e4 z2 e2 | e2 e2 AB cA | B2 c4 B2 | c2 d2 c2 BA | %15
w: à qui|_ je m'es- * * *|* tois as- ser-|vi plus|que nulz aul- * * *|tre par _|_ _ _ _ _|
 B4 A2 d2 | d2 c2 d4 | f2 e3 c d2 | e2 dc d4 | c4 f2 d2 | e2 f4 ed | c3 c c2 c2 | d4 G4 |: %23
w: a- vant, à|vous comm' hum-|ble _ _ _|_ _ _ ser-|vant, du tout|m'es- toit _ _|_ a- ban don-|* né,|
 z2 c2 c2 d2 | B2 e2 f2 d2 | f2 e3 f g2- | g2 f2 g4 | z4 e2 g2 | c2 e2 f4 | e6 d2 | c2 A2 B4 | %31
w: si j'ay mal|faict en vous ser-|vant, _ _ _|_ _ _|pour Dieu,|qu'il me soit|par- don-||
[M:2/4] A4 :|[M:2/2] A8 |] %33
w: né,|ne.|
V:4
 z2 A2 A4- | A2 F2 c2 c2 | GA Bc d2 G2 | A8 | z2 A2 A2 A2 | E2 E2 F2 G2 |"^#" A2 D2 E2 F2 | E4 A4 | %8
w: A Dieu|_ cel- le qui|t'ay _ _ _ _ ser-|vi|à mon pou-|voir tout mon _|_ _ _ _|vi- vant,|
 z2 A2 A4- | A2 F2 c2 c2 | GA Bc d2 G2 | A8 | z2 A2 A2 A2 | E2 E2 F2 G2 | A2 D2 E2 F2 | %15
w: à qui|_ je m'es- tois|as- * * * * ser-|vi|plus que nulz|aul- tre par _|_ _ _ a-|
 E2 z E F2 D2 | A4 G2 G2 | FG AB c2 B2 | c2 A2 G4 | z2 c2 A2 B2 | cB AG F2 G2 | C2 F4 E2 | D4 C4 |: %23
w: vant, à vous comm'|hum- ble ser-|vant, _ _ _ _ _|_ _ _|du tout m'es-|toit _ _ _ _ a-|ban- don- *|* né,|
 z2 C2 F2 D2 | E2 C2 F2 G2 | AG AB c2 B2 |"^#" A4 G4 | z2 A2 c2 G2 | A4 DEFG | AB c3 B G2 | %30
w: si j'ay mal|faict en vous ser-|vant, _ _ _ _ _|_ _|pour * qu'il|me soit _ _ _|par- * don- * *|
 A2 F2 E4 |[M:2/4] A,4 :|[M:2/2] A,8 |] %33
w: |né,|né.|

